DIBUJABLE/aimg/text.svg

<svg clip-rule="evenodd" fill-rule="evenodd" stroke-linejoin="round" stroke-miterlimit="2" viewBox="0 0 30 30" xmlns="http://www.w3.org/2000/svg"><g fill="#fff" fill-rule="nonzero"><path d="m.482.03c-.044 0-.076-.005-.093-.016s-.03-.026-.038-.044c-.039.014-.078.021-.117.021-.074 0-.133-.022-.178-.066-.031-.03-.046-.068-.046-.114 0-.048.015-.086.045-.114.054-.049.14-.073.259-.073-.003-.025-.01-.047-.022-.067-.012-.019-.024-.029-.036-.029s-.021.002-.029.007c-.007.004-.014.011-.02.021-.012.019-.025.031-.04.035-.014.005-.025.007-.033.007-.013 0-.025-.003-.037-.01-.02-.01-.032-.021-.036-.034-.003-.013-.005-.023-.005-.03 0-.013.004-.026.011-.039.022-.035.049-.063.083-.082.035-.019.073-.029.116-.029.052 0 .095.009.13.028.035.018.064.043.086.075s.039.067.05.107c.012.04.02.081.024.123s.007.083.007.122c0 .048-.001.089-.003.126-.001.027-.009.046-.024.058-.015.011-.033.017-.054.017zm-.238-.189c.035 0 .065-.006.089-.02l-.003-.051c-.018-.008-.041-.012-.069-.012-.019 0-.039.004-.059.012-.02.007-.03.02-.03.036 0 .013.007.022.022.027.014.006.03.008.05.008z" transform="matrix(17.14452 0 0 17.14452 1.2830902528 20.952072289)"/><path d="m.206.03c-.064 0-.108-.019-.134-.059-.021-.032-.031-.124-.031-.278 0-.097.006-.212.017-.344.002-.026.01-.045.025-.056.014-.012.032-.018.052-.018.038 0 .069.006.092.017.023.012.039.026.047.042.009.017.014.034.014.052l-.009.153c.019-.004.038-.005.057-.005.028 0 .056.003.084.01.046.012.086.035.119.067.037.037.055.086.055.148 0 .051-.014.093-.041.127-.032.039-.07.066-.116.082-.046.015-.091.023-.134.023-.01 0-.019 0-.028-.001-.016.027-.039.04-.069.04zm.097-.202c.044 0 .078-.007.103-.022.018-.011.027-.029.027-.052v-.004c-.005-.035-.035-.053-.089-.053-.027 0-.051.003-.071.01 0 .046.001.086.002.12.009.001.018.001.028.001z" transform="matrix(17.14452 0 0 17.14452 9.83009066 20.952072289)"/><path d="m.352.02c-.06 0-.115-.013-.166-.038s-.092-.062-.122-.11c-.031-.049-.047-.108-.047-.178 0-.055.013-.102.039-.141s.061-.069.104-.09c.044-.021.092-.032.144-.032.072 0 .145.026.219.077.019.013.03.026.033.04.002.013.004.022.004.027 0 .015-.005.03-.015.045-.013.019-.026.029-.04.032-.013.002-.022.004-.027.004-.016 0-.031-.005-.045-.014-.017-.011-.031-.017-.043-.018s-.02-.001-.024-.001c-.041 0-.074.015-.097.045-.013.016-.02.036-.02.061 0 .027.006.05.018.069s.027.033.046.042.038.014.058.014c.027 0 .054-.007.079-.021.013-.006.026-.01.039-.01.007 0 .015.001.023.004.021.006.037.019.048.039.006.012.01.025.01.038 0 .008-.001.015-.004.023-.005.021-.018.036-.038.047-.056.03-.115.046-.176.046z" transform="matrix(17.14452 0 0 17.14452 18.780101584 20.952072289)"/></g></svg>

<?xml version="1.0" encoding="UTF-8" standalone="no"?>
<!DOCTYPE svg PUBLIC "-//W3C//DTD SVG 1.1//EN" "http://www.w3.org/Graphics/SVG/1.1/DTD/svg11.dtd">
<svg width="100%" height="100%" viewBox="0 0 30 30" version="1.1" xmlns="http://www.w3.org/2000/svg" xmlns:xlink="http://www.w3.org/1999/xlink" xml:space="preserve" xmlns:serif="http://www.serif.com/" style="fill-rule:evenodd;clip-rule:evenodd;stroke-linejoin:round;stroke-miterlimit:2;">
    <g transform="matrix(1.42871,0,0,1.42871,-8.80886,-6.18756)">
        <g>
            <g transform="matrix(12,0,0,12,7.06368,18.9959)">
                <path d="M0.482,0.03C0.438,0.03 0.406,0.025 0.389,0.014C0.372,0.003 0.359,-0.012 0.351,-0.03C0.312,-0.016 0.273,-0.009 0.234,-0.009C0.16,-0.009 0.101,-0.031 0.056,-0.075C0.025,-0.105 0.01,-0.143 0.01,-0.189C0.01,-0.237 0.025,-0.275 0.055,-0.303C0.109,-0.352 0.195,-0.376 0.314,-0.376C0.311,-0.401 0.304,-0.423 0.292,-0.443C0.28,-0.462 0.268,-0.472 0.256,-0.472C0.244,-0.472 0.235,-0.47 0.227,-0.465C0.22,-0.461 0.213,-0.454 0.207,-0.444C0.195,-0.425 0.182,-0.413 0.167,-0.409C0.153,-0.404 0.142,-0.402 0.134,-0.402C0.121,-0.402 0.109,-0.405 0.097,-0.412C0.077,-0.422 0.065,-0.433 0.061,-0.446C0.058,-0.459 0.056,-0.469 0.056,-0.476C0.056,-0.489 0.06,-0.502 0.067,-0.515C0.089,-0.55 0.116,-0.578 0.15,-0.597C0.185,-0.616 0.223,-0.626 0.266,-0.626C0.318,-0.626 0.361,-0.617 0.396,-0.598C0.431,-0.58 0.46,-0.555 0.482,-0.523C0.504,-0.491 0.521,-0.456 0.532,-0.416C0.544,-0.376 0.552,-0.335 0.556,-0.293C0.56,-0.251 0.563,-0.21 0.563,-0.171C0.563,-0.123 0.562,-0.082 0.56,-0.045C0.559,-0.018 0.551,0.001 0.536,0.013C0.521,0.024 0.503,0.03 0.482,0.03ZM0.244,-0.159C0.279,-0.159 0.309,-0.165 0.333,-0.179L0.33,-0.23C0.312,-0.238 0.289,-0.242 0.261,-0.242C0.242,-0.242 0.222,-0.238 0.202,-0.23C0.182,-0.223 0.172,-0.21 0.172,-0.194C0.172,-0.181 0.179,-0.172 0.194,-0.167C0.208,-0.161 0.224,-0.159 0.244,-0.159Z" style="fill:white;fill-rule:nonzero;"/>
            </g>
            <g transform="matrix(12,0,0,12,13.046,18.9959)">
                <path d="M0.206,0.03C0.142,0.03 0.098,0.011 0.072,-0.029C0.051,-0.061 0.041,-0.153 0.041,-0.307C0.041,-0.404 0.047,-0.519 0.058,-0.651C0.06,-0.677 0.068,-0.696 0.083,-0.707C0.097,-0.719 0.115,-0.725 0.135,-0.725C0.173,-0.725 0.204,-0.719 0.227,-0.708C0.25,-0.696 0.266,-0.682 0.274,-0.666C0.283,-0.649 0.288,-0.632 0.288,-0.614L0.279,-0.461C0.298,-0.465 0.317,-0.466 0.336,-0.466C0.364,-0.466 0.392,-0.463 0.42,-0.456C0.466,-0.444 0.506,-0.421 0.539,-0.389C0.576,-0.352 0.594,-0.303 0.594,-0.241C0.594,-0.19 0.58,-0.148 0.553,-0.114C0.521,-0.075 0.483,-0.048 0.437,-0.032C0.391,-0.017 0.346,-0.009 0.303,-0.009C0.293,-0.009 0.284,-0.009 0.275,-0.01C0.259,0.017 0.236,0.03 0.206,0.03ZM0.303,-0.172C0.347,-0.172 0.381,-0.179 0.406,-0.194C0.424,-0.205 0.433,-0.223 0.433,-0.246L0.433,-0.25C0.428,-0.285 0.398,-0.303 0.344,-0.303C0.317,-0.303 0.293,-0.3 0.273,-0.293C0.273,-0.247 0.274,-0.207 0.275,-0.173C0.284,-0.172 0.293,-0.172 0.303,-0.172Z" style="fill:white;fill-rule:nonzero;"/>
            </g>
            <g transform="matrix(12,0,0,12,19.3104,18.9959)">
                <path d="M0.352,0.02C0.292,0.02 0.237,0.007 0.186,-0.018C0.135,-0.043 0.094,-0.08 0.064,-0.128C0.033,-0.177 0.017,-0.236 0.017,-0.306C0.017,-0.361 0.03,-0.408 0.056,-0.447C0.082,-0.486 0.117,-0.516 0.16,-0.537C0.204,-0.558 0.252,-0.569 0.304,-0.569C0.376,-0.569 0.449,-0.543 0.523,-0.492C0.542,-0.479 0.553,-0.466 0.556,-0.452C0.558,-0.439 0.56,-0.43 0.56,-0.425C0.56,-0.41 0.555,-0.395 0.545,-0.38C0.532,-0.361 0.519,-0.351 0.505,-0.348C0.492,-0.346 0.483,-0.344 0.478,-0.344C0.462,-0.344 0.447,-0.349 0.433,-0.358C0.416,-0.369 0.402,-0.375 0.39,-0.376C0.378,-0.377 0.37,-0.377 0.366,-0.377C0.325,-0.377 0.292,-0.362 0.269,-0.332C0.256,-0.316 0.249,-0.296 0.249,-0.271C0.249,-0.244 0.255,-0.221 0.267,-0.202C0.279,-0.183 0.294,-0.169 0.313,-0.16C0.332,-0.151 0.351,-0.146 0.371,-0.146C0.398,-0.146 0.425,-0.153 0.45,-0.167C0.463,-0.173 0.476,-0.177 0.489,-0.177C0.496,-0.177 0.504,-0.176 0.512,-0.173C0.533,-0.167 0.549,-0.154 0.56,-0.134C0.566,-0.122 0.57,-0.109 0.57,-0.096C0.57,-0.088 0.569,-0.081 0.566,-0.073C0.561,-0.052 0.548,-0.037 0.528,-0.026C0.472,0.004 0.413,0.02 0.352,0.02Z" style="fill:white;fill-rule:nonzero;"/>
            </g>
        </g>
    </g>
</svg>
